assets/icons/shield-half-24.svg

<svg width="24" height="24" viewBox="0 0 24 24" fill="none" xmlns="http://www.w3.org/2000/svg">
<path fill-rule="evenodd" clip-rule="evenodd" d="M20.0213 5.15637C21.2781 5.85214 22.1773 7.23293 21.9703 8.80062C21.5113 12.2774 19.8835 15.7603 18.0257 18.3717C17.0944 19.6808 16.0819 20.8043 15.0915 21.6123C14.1406 22.3879 13.0556 23 12 23C10.9444 23 9.85938 22.3879 8.90852 21.6123C7.91813 20.8043 6.90556 19.6808 5.97431 18.3717C4.11654 15.7603 2.48866 12.2774 2.02969 8.80062C1.82273 7.23294 2.72188 5.85214 3.97872 5.15637L10.7609 1.40188C11.6893 0.862834 12.23 0.869255 13.2391 1.40188L20.0213 5.15637ZM4.95963 6.91575L10.9901 3.57737V20.6224C10.7522 20.4824 10.4841 20.2964 10.188 20.0549C9.37147 19.3888 8.47767 18.4104 7.6221 17.2078C5.90623 14.7958 4.43866 11.6167 4.03225 8.53813C3.95221 7.93175 4.29279 7.2849 4.95963 6.91575Z" fill="#F2F2F2"/>
</svg>

<svg xmlns="http://www.w3.org/2000/svg" width="24" height="24" viewBox="0 0 24 24"><path fill-rule="evenodd" d="M20.021 5.156c1.257.696 2.156 2.077 1.95 3.645-.46 3.476-2.087 6.96-3.945 9.57-.932 1.31-1.944 2.433-2.934 3.241C14.14 22.388 13.056 23 12 23s-2.14-.612-3.091-1.388c-.99-.808-2.003-1.931-2.935-3.24C4.117 15.76 2.49 12.277 2.03 8.8c-.207-1.568.692-2.949 1.949-3.645l6.782-3.754c.928-.54 1.469-.533 2.478 0l6.782 3.754zM4.96 6.916l6.03-3.339v17.045a6.501 6.501 0 01-.802-.567c-.817-.666-1.71-1.645-2.566-2.847-1.716-2.412-3.183-5.591-3.59-8.67-.08-.606.26-1.253.928-1.622z"/></svg>
